packages/radix-icons/outline/15/pencil.svg

<svg width="15" height="15" fill="none" xmlns="http://www.w3.org/2000/svg">
  <path
    fill-rule="evenodd"
    clip-rule="evenodd"
    d="M11.8535 1.14645C11.6583 0.951184 11.3417 0.951184 11.1464 1.14645L3.71452 8.57836C3.62456 8.66832 3.55259 8.77461 3.50248 8.89155L2.04041 12.303C1.95987 12.491 2.00186 12.709 2.14643 12.8536C2.291 12.9981 2.50902 13.0401 2.69694 12.9596L6.10844 11.4975C6.22537 11.4474 6.33167 11.3754 6.42163 11.2855L13.8535 3.85355C14.0488 3.65829 14.0488 3.34171 13.8535 3.14645L11.8535 1.14645ZM4.42163 9.28547L11.5 2.20711L12.7929 3.5L5.71452 10.5784L4.21921 11.2192L3.78078 10.7808L4.42163 9.28547Z"
    fill="currentColor"
  />
</svg>

<svg width="15" height="15" fill="none" xmlns="http://www.w3.org/2000/svg">
  <path
    fill-rule="evenodd"
    clip-rule="evenodd"
    d="M11.854 1.146a.5.5 0 00-.708 0L3.715 8.578a1 1 0 00-.213.314L2.04 12.303a.5.5 0 00.657.657l3.411-1.463a1 1 0 00.314-.211l7.432-7.432a.5.5 0 000-.708l-2-2zm-7.432 8.14L11.5 2.206 12.793 3.5l-7.078 7.078-1.496.641-.438-.438.64-1.496z"
    fill="currentColor"
  />
</svg>
